X:1
T:Sonata in Do K545
T:Mozart - Piano Sonata No.16 (K 545) 
T:1st mov. Allegro for Flute and Piano
T:W. A. Mozart (1756-1791)
C:Samuele Stievano
%%score 1 { 2 | 3 }
L:1/8
M:4/4
K:C
V:1 treble nm="Flute" snm="Fl."
V:2 treble nm="Piano" snm="Pf."
V:3 bass 
V:1
 c4 e2 g2 | B3 c/d/ c4 | a4 g2 c'2 | g2 Tfe/f/ e4 | AB/c/ d/e/f/g/ a/g/f/e/ d/c/B/A/ | %5
 GA/B/ c/d/e/f/ g/f/e/d/ c/B/A/G/ | FG/A/ B/c/d/e/ f/e/d/c/ B/A/G/F/ | %7
 EF/G/ A/B/c/d/ e/d/c/B/ A/G/F/E/ | DE/F/ G/A/B/^c/ d/A/B/c/ d/e/f/g/ | %9
 a/b/c'/b/ a/g/f/e/ f/g/f/e/ d/c/B/A/ | Bgec dgec | d2 g2 G2 z2 | z8 | d'b g3 a/b/ ag | Tg>^f f6 | %15
 d'b g3 a/b/ ag | Tg>^f f6 | d'4 e4 | c'4 d4 | b4 c4 | a4 B4 | A4{/B} c2{/^d} e2 | %22
{/^g} a3 b/4a/4g/4a/4 c'ac'a | bg d'4 c'/b/a/g/ | Ta8{ga} | g2 g/d/g/b/ d'/b/g/b/ c'/a/^f/a/ | %26
 g2 z2 z4 | z2 b2 g2 z2 || z2 g/d/g/_b/ d'/b/g/b/ c'/a/_g/a/ | g2 z2 z4 | %30
 z2 z2 z/ g/_b/a/ g/=f/e/d/ | ^c2 z2 z/ ^c'/e'/d'/ c'/_b/a/g/ | f2 d/A/d/f/ a/f/d/f/ g/e/^c/e/ | %33
 d2 z2 z4 | z/ D/E/F/ G/A/B/^c/ d2 z2 | z/ B/c/d/ e/^f/^g/a/ b2 z2 | z/ a/e'/d'/ c'/b/a/g/ f2 z2 | %37
 z/ g/d'/c'/ b/a/g/f/ e2 z2 | z/ f/c'/b/ a/g/f/e/ d2 z2 | z/ e/b/a/ ^g/f/e/d/ c2 z2 | %40
 z/ _B/d/c/ B/A/G/F/ E/F/G/A/ B/c/d/e/ | f4 a2 c'2 | e3 f/g/ f4 | d'4 c'2 f'2 | c'2 T_bc'/b/ a4 | %45
 de/f/ g/a/_b/c'/ d'/c'/b/a/ g/f/e/d/ | cd/e/ f/g/a/_b/ c'/b/a/g/ f/e/d/c/ | %47
 _Bc/d/ e/f/g/a/ _b/a/g/f/ e/d/c/B/ | A_B/c/ d/e/f/g/ a/g/f/e/ d/c/B/A/ | a2 z2 z2 a2 | %50
 g2 z2 z2 g2 | f2 z2 z2 f2 | e2 z2 z2 e2 | d/D/E/F/ G/A/B/^c/ d/A/B/c/ d/e/f/g/ | %54
 a/b/=c'/b/ a/g/f/e/ f/g/a/g/ f/e/d/c/ | Bgec dgec | d2 g2 G2 z2 | z8 | ge c3 d/e/ dc | Tc>B B6 | %60
 ge c3 d/e/ dc | Tc>B B6 | g4 A4 | f4 G4 | e'4 f4 | d'4 e4 | d4{/^c} d2{/c} d2 | %67
 a4{/^g} a2{/g} a2 | =ga/b/ c'/d'/e'/d'/ c'/b/a/g/ f/e/d/c/ | Td8{cd} | %70
 c2 c/G/c/e/ g/e/c/e/ f/d/B/d/ | c2 z2 z4 | z2 e2 c2 z2 |] %73
V:2
 z8 | z8 | z8 | z8 | z8 | z8 | z8 | z8 | z8 | z8 | z8 | d2 [Bdg]2 G2 z2 | z8 | z8 | z8 | z8 | z8 | %17
 d'2 z/ d'/b/g/ e2 z/ e/g/e/ | c'2 z/ c'/a/^f/ d2 z/ d/f/d/ | b2 z/ b/g/e/ c2 z/ c/e/c/ | %20
 a2 z/ a/^f/c/ B2 z/ g/d/B/ | A4 z4 | z8 | z8 | z8 | z8 | g2 G/D/G/B/ d/B/G/B/ c/A/_G/A/ | %27
 G2 d2 B2 z2 || z8 | z2 G/D/G/_B/ d/B/G/B/ c/A/_G/A/ | G2 z2 z4 | z8 | z8 | %33
 z2 D/A,/D/F/ A/F/D/F/ G/E/^C/E/ | z8 | z8 | z8 | z8 | z8 | z8 | z8 | z8 | z8 | z8 | z8 | z8 | z8 | %47
 z8 | z8 | z2 z2 z2 [ca]2 | [cg]2 z2 z2 [cg]2 | [cf]2 z2 z2 [cf]2 | [ce]2 z2 z2 [ce]2 | z8 | z8 | %55
 z8 | d2 [Bdg]2 G2 z2 | z8 | z8 | z8 | z8 | z8 | g2 z/ g/e/c/ A2 z/ A/c/A/ | %63
 f2 z/ f/d/B/ G2 z/ g/b/g/ | e'2 z/ e'/c'/a/ f2 z/ f/a/f/ | d'2 z/ d'/b/f/ e2 z/ c'/g/e/ | d4 z4 | %67
 z8 | z8 | z8 | z8 | z2 C/G,/C/E/ G/E/C/E/ F/D/B,/D/ | C2 [Ge]2 [Ec]2 z2 |] %73
V:3
 CGEG CGEG | DGFG CGEG | CAFA CGEG | B,GFG CGEG | F2 z4[K:bass] [F,C]2 | [E,C]2 z4 [E,C]2 | %6
 [D,C]2 z4 [D,B,]2 | [C,C]2 z4 [C,E,]2 | [F,A,]2 z2 z4 | F,3 G, A,3 ^F, | %10
 G,,/B,,/D,/G,/ G,,/C,/E,/G,/ G,,/B,,/D,/G,/ G,,/C,/E,/G,/ | G,,2 G,2 G,,2 z2 | %12
 ^C/D/C/D/ C/D/C/D/ =C/D/C/D/ C/D/C/D/ | B,/D/B,/D/ B,/D/B,/D/ B,/D/B,/D/ B,/D/B,/D/ | %14
 C/D/B,/D/ A,/D/B,/D/ C/D/B,/D/ C/D/A,/D/ | B,/D/B,/D/ B,/D/B,/D/ B,/D/B,/D/ B,/D/B,/D/ | %16
 C/D/B,/D/ A,/D/B,/D/ C/D/B,/D/ C/D/A,/D/ | %17
 z/ B,/[I:staff -1]D/G/ B2[I:staff +1] z/[I:staff -1] C/E/G/ c2 | %18
[I:staff +1] z/ A,/[I:staff -1]C/^F/ A2[I:staff +1] z/ B,/[I:staff -1]D/G/ B2 | %19
[I:staff +1] z/ G,/B,/[I:staff -1]D/ G2[I:staff +1] z/ A,/C/[I:staff -1]E/ A2 | %20
[I:staff +1] z/ ^F,/A,/[I:staff -1]D/ ^F2[I:staff +1] z/ G,/B,/[I:staff -1]D/ G2 | %21
[I:staff +1][K:treble] [CE][CE][CE][CE] [CE][CE][CE][CE] | [CE][CE][CE][CE] [CE][CE][CE][CE] | %23
 D/B/G/B/ D/B/G/B/ D/B/G/B/ D/B/G/B/ | D/c/^F/c/ D/c/F/c/ D/c/F/c/ D/c/F/c/ | [GB]2 z2 z2 [DAc]2 | %26
 [GB]2 z2 z2[K:bass] [D,A,C]2 | [G,B,]2 [G,,G,]2 [G,,G,]2 z2 || [G,,G,]2 z2 z2[K:treble] [DAc]2 | %29
 [G_B]2 z2 z2[K:bass] [D,A,C]2 | z/ G,,/A,,/_B,,/ C,/D,/E,/^F,/ G,2 z2 | %31
 z/ A,,/B,,/^C,/ D,/E,/^F,/^G,/ A,2 z2 | [D,,D,]2 z2 z2[K:treble] [A,EG]2 | %33
 [DF]2 z2 z2[K:bass] [A,,E,G,]2 | [D,F,]2 z2 z/ D/F/E/ D/C/B,/A,/ | %35
 ^G,2 z2 z/ G,/B,/A,/ G,/=F,/E,/D,/ | C,2 z2[K:treble] z/ D/A/G/ F/E/D/C/ | %37
 B,2 z2 z/ C/G/F/ E/D/C/B,/ | A,2 z2[K:bass] z/ B,/F/E/ D/C/B,/A,/ | %39
 ^G,2 z2 z/ A,/C/B,/ A,/=G,/F,/E,/ | D,4 [C,G,_B,]4 |[K:treble] FcAc FcAc | Gc_Bc FcAc | %43
 Fd_Bd FcAc | Ec_Bc FcAc | _B2 z4[K:bass] [_B,F]2 | [A,F]2 z4 [A,F]2 | [G,F]2 z4 [G,E]2 | %48
 [F,F]2 z4 [F,A,]2 | F,G,/A,/ _B,/C/D/E/ F/E/D/C/ B,/A,/G,/F,/ | %50
 E,F,/G,/ A,/B,/C/D/ E/D/C/B,/ A,/G,/F,/E,/ | D,E,/F,/ G,/A,/B,/C/ D/C/B,/A,/ G,/F,/E,/D,/ | %52
 C,D,/E,/ F,/G,/A,/B,/ C/B,/A,/G,/ F,/E,/D,/C,/ | [F,A,]8 | F,3 G, A,3 ^F, | %55
 G,,/B,,/D,/G,/ G,,/C,/E,/G,/ G,,/B,,/D,/G,/ G,,/C,/E,/G,/ | G,,2 G,2 G,,2 z2 | %57
[K:treble] ^F/G/F/G/ F/G/F/G/ =F/G/F/G/ F/G/F/G/ | E/G/E/G/ E/G/E/G/ E/G/E/G/ E/G/E/G/ | %59
 F/G/E/G/ D/G/E/G/ F/G/E/G/ F/G/D/G/ | E/G/E/G/ E/G/E/G/ E/G/E/G/ E/G/E/G/ | %61
 F/G/E/G/ D/G/E/G/ F/G/E/G/ F/G/D/G/ | z/[K:bass] E,/G,/C/ E2 z/ F,/A,/C/ F2 | %63
 z/ D,/F,/B,/ D2 z/ E,/G,/C/ E2 | z/[K:treble] C/E/G/ c2 z/ D/F/A/ d2 | %65
 z/ B,/D/G/ B2 z/ C/E/G/ c2 | z [FA][FA][FA] [FA][FA][FA][FA] | %67
[K:bass] z [^F,C_E][F,CE][F,CE] [F,CE][F,CE][F,CE][F,CE] | %68
 G,/=E/C/E/ G,/E/C/E/ G,/E/C/E/ G,/E/C/E/ | G,/F/B,/F/ G,/F/B,/F/ G,/F/B,/F/ G,/F/B,/F/ | %70
 [CE]2 z2 z2 [G,DF]2 | [CE]2 z2 z2 [G,,D,F,]2 | [C,E,]2 C2 [C,,C,]2 z2 |] %73

